astro/public/img/icons/math-password-hashing.svg

<svg height="70" viewBox="0 0 70 70" width="70" xmlns="http://www.w3.org/2000/svg" xmlns:xlink="http://www.w3.org/1999/xlink"><linearGradient id="a" x1="0%" x2="100%" y1="8.988964%" y2="91.011036%"><stop offset="0" stop-color="#a4aebe"/><stop offset="1" stop-color="#2d53f5"/></linearGradient><path d="m21.911525.06828098c1.426495.32975193 2.31716 1.76062357 1.98962 3.19594844l-2.246935 9.84202578h13.518975l2.519355-11.03610322c.327805-1.43532486 1.749795-2.33159626 3.176025-2.001871 1.426495.32975193 2.31716 1.76062357 1.989355 3.19594844l-2.24667 9.84202578h9.73875c1.463595 0 2.65 1.1938907 2.65 2.6666014 0 1.4727372-1.186405 2.6666014-2.65 2.6666014h-10.956425l-2.51379 11.0105304h10.671815c1.463595 0 2.65 1.1938375 2.65 2.6666014 0 1.472764-1.186405 2.6666014-2.65 2.6666014h-11.889225l-2.544795 11.1466605c-.327805 1.4354315-1.749795 2.3316763-3.176025 2.0018177-1.426495-.329592-2.31716-1.7604903-1.989355-3.1959218l2.27211-9.9525564h-13.519028l-2.544742 11.1466605c-.327699 1.4354315-1.7496625 2.3316763-3.1760515 2.0018177-1.4264155-.329592-2.3170805-1.7604903-1.989408-3.1959218l2.2721365-9.9525564h-8.617217c-1.463542 0-2.65-1.1938374-2.65-2.6666014 0-1.4727639 1.186458-2.6666014 2.65-2.6666014h9.834786l2.5137105-11.0105304h-9.5500435c-1.463542 0-2.65-1.1938908-2.65-2.6666014 0-1.4727373 1.186458-2.6666014 2.65-2.6666014h10.7676125l2.5195405-11.03610322c.3276725-1.43532486 1.749636-2.33159626 3.175919-2.001871zm-1.4749635 18.37117702-2.5137105 11.0105304h13.518869l2.51379-11.0105304z" fill="url(#a)" fill-rule="evenodd" transform="translate(9 12)"/></svg>

<svg xmlns="http://www.w3.org/2000/svg" width="70" height="70"><linearGradient id="a" x1="0%" x2="100%" y1="8.989%" y2="91.011%"><stop offset="0" stop-color="#a4aebe"/><stop offset="1" stop-color="#2d53f5"/></linearGradient><path fill="url(#a)" fill-rule="evenodd" d="M21.912.068a2.667 2.667 0 0 1 1.99 3.196l-2.248 9.842h13.52L37.692 2.07A2.65 2.65 0 0 1 40.869.068a2.667 2.667 0 0 1 1.989 3.196l-2.247 9.842h9.739A2.658 2.658 0 0 1 53 15.773a2.658 2.658 0 0 1-2.65 2.666H39.394L36.88 29.45h10.672a2.658 2.658 0 0 1 2.65 2.667 2.658 2.658 0 0 1-2.65 2.666h-11.89L33.118 45.93a2.65 2.65 0 0 1-3.176 2.002 2.667 2.667 0 0 1-1.99-3.196l2.272-9.953H16.705L14.161 45.93a2.65 2.65 0 0 1-3.177 2.002 2.667 2.667 0 0 1-1.989-3.196l2.272-9.953H2.65A2.658 2.658 0 0 1 0 32.117a2.658 2.658 0 0 1 2.65-2.667h9.835l2.513-11.01h-9.55a2.658 2.658 0 0 1-2.65-2.667 2.658 2.658 0 0 1 2.65-2.667h10.768l2.52-11.036A2.65 2.65 0 0 1 21.912.068zM20.437 18.44l-2.514 11.01h13.519l2.514-11.01z" transform="translate(9 12)"/></svg>
